X: 41677
T: Upton-upon-Severn Stick Dance
R: jig
M: 6/8
K: Amajor
|:c|e2c cBA|BAB cAF|E2A Ace|fec B2c/d/|
e2c cBA|BAB cAF|E2A ABc|BAB A2:|
|:A|Ace a2e|fef ecA|Ace a2e|fec 2B3/2|
Ace a2e|fef ecA|faf ecA|BcB A2:|

